X: 92
T: Se vostre cuer
N: Derived from Ock3020-Se_vostre_cuer.krn
C: Johannes Ockeghem
%%abc-version 2.0
%%abcx-abcm2ps-target-version 5.9.1 (29 Sep 2008)
%%abc-creator hum2abc beta
%%abcx-conversion-date 2019/02/17 07:26:16
%%abc-edited-by Jesse Rodin
%%abc-edited-by Chris Gage 06-25-2012
%%abcx-initial-encoding-date 2012/06/25/
%%humdrum-veritas 3155821667
%%humdrum-veritas-data 3461429316
%%linebreak <none>
%%barnumbers 0
L: 1/4
M: 2/1
Q: 1/2=120
V: 1 clef=treble
V: 2 clef=treble-8
V: 3 clef=bass
K: Bb
[V:1] F8 | 
[V:2] B8 | 
[V:3] B,,8 | 
[V:1] D4E4 | 
[V:2] B4G4 | 
[V:3] B,,4C,4 | 
[V:1] C4B,4 | 
[V:2] A4B3A | 
[V:3] F,,4B,,4- | 
[V:1] D4C4 | 
[V:2] F3GA4 | 
[V:3] B,,4F,4- | 
[V:1] F8 | 
[V:2] A2Bcd4 | 
[V:3] F,4D,4 | 
[V:1] G8 | 
[V:2] c2B4AG | 
[V:3] E,8 | 
[V:1] A8 | 
[V:2] F8- | 
[V:3] F,4F,,4 | 
[V:1] z4F4 | 
[V:2] F4D4 | 
[V:3] z2F,4B,2- | 
[V:1] G4F4 | 
[V:2] E4D4 | 
[V:3] B,2G,2A,4 | 
[V:1] D4D4 | 
[V:2] B,4B4 | 
[V:3] B,4B,,4 | 
[V:1] E4E4 | 
[V:2] G4A4 | 
[V:3] C,4B,,2C,2 | 
[V:1] D3EF2B,2- | 
[V:2] B3cd4 | 
[V:3] B,,8 | 
[V:1] B,2F3E/F/G2 | 
[V:2] G2F2B4 | 
[V:3] E,2D,2B,,4 | 
[V:1] E2F4D2 | 
[V:2] c2d4cB | 
[V:3] z2B,,2D,2E,2 | 
[V:1] C4C4 | 
[V:2] A4z4 | 
[V:3] F,8- | 
[V:1] F4G4 | 
[V:2] A4B4 | 
[V:3] F,4z4 | 
[V:1] A4F4 | 
[V:2] c4d4 | 
[V:3] F,4B,,4 | 
[V:1] G4F4 | 
[V:2] B2c2d4 | 
[V:3] E,4D,3E,/F,/ | 
[V:1] B4A2F2 | 
[V:2] z2G2F2B2- | 
[V:3] G,2E,2F,2G,2 | 
[V:1] G4F2B2 | 
[V:2] B2c2d4 | 
[V:3] E,4D,3B,, | 
[V:1] A2G3FF2- | 
[V:2] c4B2A2 | 
[V:3] F,2E,4F,2 | 
[V:1] F2=E2F4 | 
[V:2] G4F4 | 
[V:3] C,4z2D,2- | 
[V:1] D2E3DCB, | 
[V:2] B,2C2D2=E2 | 
[V:3] D,2C,2B,,2A,,G,, | 
[V:1] !fermata!A,8 | 
[V:2] !fermata!F8 | 
[V:3] !fermata!F,,8 | 
[V:1] A8 | 
[V:2] c8 | 
[V:3] F,8 | 
[V:1] A4A4 | 
[V:2] c6BA | 
[V:3] F,4F,4 | 
[V:1] B8 | 
[V:2] G8 | 
[V:3] E,8 | 
[V:1] B4A4 | 
[V:2] G4F4 | 
[V:3] E,4F,4 | 
[V:1] G8 | 
[V:2] =E2=E4D=E | 
[V:3] C,8 | 
[V:1] A4F2G2- | 
[V:2] F3GA2B2 | 
[V:3] z2F,4E,2- | 
[V:1] GFE2D2E2- | 
[V:2] G4F2G2 | 
[V:3] E,D,C,2D,2G,,2- | 
[V:1] E2D3B,C2 | 
[V:2] D4E4 | 
[V:3] G,,A,,B,,2C,2A,,2 | 
[V:1] D4z2B,2 | 
[V:2] D3B,C2D2 | 
[V:3] B,,2D,2E,2F,2 | 
[V:1] C2D2E2F2- | 
[V:2] E2F2G2A2 | 
[V:3] G,2A,2B,2z2 | 
[V:1] F2D2C4 | 
[V:2] F2B4A2 | 
[V:3] B,,4F,4 | 
[V:1] B,4z4 | 
[V:2] B4c2d2- | 
[V:3] B,,4E,2F,2 | 
[V:1] B,4F4 | 
[V:2] d2cBA4 | 
[V:3] G,4F,2D,2- | 
[V:1] D4=E4 | 
[V:2] B4G4 | 
[V:3] D,2B,,2C,4 | 
[V:1] F4B,4 | 
[V:2] z2F2D2=E2- | 
[V:3] F,,4z2G,,2 | 
[V:1] C2D2=E2F2- | 
[V:2] E2F2G2F2 | 
[V:3] A,,2F,,2C,2D,2- | 
[V:1] F=E/F/G2A2B2- | 
[V:2] B4c2d2- | 
[V:3] D,B,,E,2D,C,B,,2- | 
[V:1] BA/B/c2A2G2- | 
[V:2] d2c3AB2 | 
[V:3] B,,2F,4E,2 | 
[V:1] G2F4=E2 | 
[V:2] F4G4 | 
[V:3] D,4C,4 | 
[V:1] F8 |]  
[V:2] F8 |]  
[V:3] F,,8 |]  



